src/images/single-assets/DUET.svg

<svg width="96" height="96" viewBox="0 0 96 96" fill="none" xmlns="http://www.w3.org/2000/svg">
<mask id="mask0_1905_1233" style="mask-type:alpha" maskUnits="userSpaceOnUse" x="0" y="0" width="96" height="96">
<circle cx="48" cy="48" r="48" fill="white"/>
</mask>
<g mask="url(#mask0_1905_1233)">
<path d="M96 0H0V96H96V0Z" fill="#0E1124"/>
<path fill-rule="evenodd" clip-rule="evenodd" d="M36.16 35.5202C40.4016 35.5202 43.84 38.9587 43.84 43.2002V68.8002H43.2C38.9585 68.8002 35.52 65.3618 35.52 61.1202V35.5202H36.16ZM52.8 27.2002C57.0416 27.2002 60.48 30.6386 60.48 34.8802V60.4802H59.84C55.5985 60.4802 52.16 57.0417 52.16 52.8002V27.2002H52.8Z" fill="url(#paint0_linear_1905_1233)"/>
</g>
<defs>
<linearGradient id="paint0_linear_1905_1233" x1="60.48" y1="45.8563" x2="35.52" y2="45.8563" gradientUnits="userSpaceOnUse">
<stop stop-color="#AF0BD9"/>
<stop offset="1" stop-color="#5574FF"/>
</linearGradient>
</defs>
</svg>

<svg xmlns="http://www.w3.org/2000/svg" width="96" height="96" fill="none"><mask id="a" width="96" height="96" x="0" y="0" maskUnits="userSpaceOnUse" style="mask-type:alpha"><circle cx="48" cy="48" r="48" fill="#fff"/></mask><g mask="url(#a)"><path fill="#0E1124" d="M96 0H0v96h96z"/><path fill="url(#b)" fill-rule="evenodd" d="M36.16 35.52a7.68 7.68 0 0 1 7.68 7.68v25.6h-.64a7.68 7.68 0 0 1-7.68-7.68v-25.6zM52.8 27.2a7.68 7.68 0 0 1 7.68 7.68v25.6h-.64a7.68 7.68 0 0 1-7.68-7.68V27.2z" clip-rule="evenodd"/></g><defs><linearGradient id="b" x1="60.48" x2="35.52" y1="45.856" y2="45.856" gradientUnits="userSpaceOnUse"><stop stop-color="#AF0BD9"/><stop offset="1" stop-color="#5574FF"/></linearGradient></defs></svg>
